X:82
T:General Wolfe - Peake
%%VWML:SBG-1-2-461-0
F:http://www.vwml.org/record/SBG/1/2/461
Z:Original Sibelius transcriptions by M. & S. Graebe
M:3/4
I:linebreak $
K:G
V:1 treble nm="P1"
V:1
 G2 | GD G2 AB | cd B2 A2 | BB G2 FE | AF D2 | B2 | cd e2 cA |$ Bc d2 | e2 | dB (AB) cd | %10
 BG EF GD | GE FGAB | G2 z2 x2 | %13
T:General Wolfe - Isaacs
F:http://www.vwml.org/record/SBG/1/2/
Z:Original Sibelius transcriptions by M. & S. Graebe
M:3/4
I:linebreak $
K:G
V:1 treble nm="P1"
V:1
 G2 | G D G2 A B | c d B3 | G2 | A B c2 AG | FE D2 | B2 | c d e2 c A | B ^c d3 |$ e2 | %10
w: ||||||||||
 d B A B c d | B G E3/2 G/ D G | E F G A A B | G6 | %14
w: * * * Don't be down-|heart- ed Don't be down heart-|ed but gain the vic- to-|ry|








